X:1
T:On Christmas Night
C:Traditional
M:6/8
L:1/8
Q:3/8=100
K:F
c | c2A B2c|AGF G2E|F2F GAB|A2G F3|cA2 B2c|AGF GFE|F2F GAB|A2G F3|]
w: * | On Christ-mas night | all Christ-ians sing * | to hear the news the | an-gels bring | News of great joy | news of great mirth * * | News of our mer-ci | -ful King's birth
